X:1
T:French Suite V Sarabande
T:BWV 816
T:J. S. Bach 
%%score { 1 | ( 2 3 ) }
L:1/8
M:3/4
K:G
V:1 treble nm="Harp"
V:2 bass 
V:3 bass 
V:1
 B/4A/4B/- B2 c B/4A/4B/4A/4B/4A/4G/ | d2 e/4d/4e/- e3 | F3 c c/4B/4c/4B/4c/4B/4A/ | A6 | %4
 f/4e/4f/- f2 g f/4e/4f/4e/4f/4e/4d/ | g2 c/4B/4c/- c2 d/e/ | A2 d>c B>c | %7
 c/4B/4c/4B/4c/4B/4c/4B/4 c/4B/4c/4B/4 A G2 | b3 g g/4f/4g/4f/4g/4f/4e/ | a2 d3 e/f/ | %10
 B2- B/d/^c/B/ e/g/f/e/ | d/4^c/4d/4c/4d/4c/4d/4c/4 d/4c/4d/4c/4 B A2 | A/4G/4F/G e3 d/^c/ | %13
 g3/2f/4e/4 a>f{e} d2- | d>B d/4^c/4d/4c/4d/4c/4d/4c/4 d/4c/4d/4c/4 d | d6 | %16
 B/4A/4B/- B2 c B/4A/4B/4A/4B/4A/4G/ | d2 e/4d/4e/- e3 | F3 c c/4B/4c/4B/4c/4B/4A/ | A6 | %20
 f/4e/4f/- f2 g f/4e/4f/4e/4f/4e/4d/ | g2 c/4B/4c/- c2 d/e/ | A2 d>c B>c | %23
 c/4B/4c/4B/4c/4B/4c/4B/4 c/4B/4c/4B/4 A G2 | b3 g g/4f/4g/4f/4g/4f/4e/ | a2 d3 e/f/ | %26
 B2- B/d/^c/B/ e/g/f/e/ | d/4^c/4d/4c/4d/4c/4d/4c/4 d/4c/4d/4c/4 B A2 | A/4G/4F/G e3 d/^c/ | %29
 g3/2f/4e/4 a>f{e} d2- | d>B d/4^c/4d/4c/4d/4c/4d/4c/4 d/4c/4d/4c/4 d | d6 | f3 g a>f | %33
 d2 g3 a/b/ | e3 d c>B | c3 B A2 | c'3 b/a/ b>e | e/4^d/4e/4d/4e/4d/4e/4d/4 e/4d/4e/4d/4 e/f/ B>a | %38
 g>f e/4^d/4e/4d/4e/4d/4e/4d/4 e/4d/4e/4d/4 e | e/4^d/4e3/2- e4 | %40
 B/4A/4B/- B2 c B/4A/4B/4A/4B/4A/4G/ | =f/4e/4f3/2 e4 | d3/2c/4B/4 a>g =f/e/d/c/ | %43
 e2 e/4d/4c/d c2 | A3 B A/4G/4A/4G/4A/4G/4F/ | d2 e/4d/4e3/2- e2 | %46
 D/E/F/G/ A/B/c/A/ (3B/A/G/(3A/G/F/ | [GG]2 G/4F/4G/4F/4G/4F/4 E/ D2 | %48
 d/4c/4d3/2- d e d/4c/4d/4c/4d/4c/4B/ | e2 e/4f/4g/4f/4g/4f/4g/4f/4 g/4f/4g/4f/4 e/f/ | %50
 g2- ga/b/ a/f/g | g/4f/4g/4f/4g/4f/4g/4f/4 g/4f/4g/4f/4 e d2 | d/4c/4Bc/ f3 g/a/ | %53
 (3a/b/c'/(3c'/b/a/ (3a/g/f/(3f/e/d/ (3d/b/a/(3g/f/e/ | (3d/c/B/(3e/d/c/ B2 B/4A/4B/4A/4B/4A/4 G/ | %55
 G6 | f3 g a>f | d2 g3 a/b/ | e3 d c>B | c3 B A2 | c'3 b/a/ b>e | %61
 e/4^d/4e/4d/4e/4d/4e/4d/4 e/4d/4e/4d/4 e/f/ B>a | g>f e/4^d/4e/4d/4e/4d/4e/4d/4 e/4d/4e/4d/4 e | %63
 e/4^d/4e3/2- e4 | B/4A/4B/- B2 c B/4A/4B/4A/4B/4A/4G/ | =f/4e/4f3/2 e4 | %66
 d3/2c/4B/4 a>g =f/e/d/c/ | e2 e/4d/4c/d c2 | A3 B A/4G/4A/4G/4A/4G/4F/ | d2 e/4d/4e3/2- e2 | %70
 D/E/F/G/ A/B/c/A/ (3B/A/G/(3A/G/F/ | [GG]2 G/4F/4G/4F/4G/4F/4 E/ D2 | %72
 d/4c/4d3/2- d e d/4c/4d/4c/4d/4c/4B/ | e2 e/4f/4g/4f/4g/4f/4g/4f/4 g/4f/4g/4f/4 e/f/ | %74
 g2- ga/b/ a/f/g | g/4f/4g/4f/4g/4f/4g/4f/4 g/4f/4g/4f/4 e d2 | d/4c/4Bc/ f3 g/a/ | %77
 (3a/b/c'/(3c'/b/a/ (3a/g/f/(3f/e/d/ (3d/b/a/(3g/f/e/ | (3d/c/B/(3e/d/c/ B2 B/4A/4B/4A/4B/4A/4 G/ | %79
 !fermata!G6 |] %80
V:2
 z2 G,4- | G,3 G, A,B, | C2 A,2 G,2- | G,E, F,A, D2 | z2 A,4 | z D, G,4- | G,2 F,E, F,2 | G,6 | %8
 z B, E2 D2 | ^C2 z A, D2 | G,6- | G,E, A,G, F,2 | E,3 E, A,2- | A,D, ^C,2 D,E, | F,-F, E,F, G,2- | %15
 G,F,/E,/ F,2 z2 | z2 G,4- | G,3 G, A,B, | C2 A,2 G,2- | G,E, F,A, D2 | z2 A,4 | z D, G,4- | %22
 G,2 F,E, F,2 | G,6 | z B, E2 D2 | ^C2 z A, D2 | G,6- | G,E, A,G, F,2 | E,3 E, A,2- | %29
 A,D, ^C,2 D,E, | F,-F, E,F, G,2- | G,F,/E,/ F,2 z2 | z2 D4- | DD CB,- B,2 | C3 B, A,^G, | %35
 A,2 z2 z2 | z [CC] F2 z B, | z A, C2 F,2 | E,F,- F,G, A,2- | A,G,/F,/ G,2 z2 | G,6- | %41
 G,3 E, =F,G, | A,B, C4- | C2 B,2 C2 | F,4 z2 | G,4 z2 | z A,, D,3 E, | D,B, A,G, F,2- | %48
 F,D, G,4- | G,E, A,4 | z D, z E, A,2- | A,A, DC B,A, | G,2 A,2 z2 | z2 z A,, B,,C, | %54
 D,G,- G,E, F,C- | CB,/A,/ B,2 z2 | z2 D4- | DD CB,- B,2 | C3 B, A,^G, | A,2 z2 z2 | %60
 z [CC] F2 z B, | z A, C2 F,2 | E,F,- F,G, A,2- | A,G,/F,/ G,2 z2 | G,6- | G,3 E, =F,G, | %66
 A,B, C4- | C2 B,2 C2 | F,4 z2 | G,4 z2 | z A,, D,3 E, | D,B, A,G, F,2- | F,D, G,4- | G,E, A,4 | %74
 z D, z E, A,2- | A,A, DC B,A, | G,2 A,2 z2 | z2 z A,, B,,C, | D,G,- G,E, F,C- | CB,/A,/ B,2 z2 |] %80
V:3
 G,,4 E,2 | B,,2 C,4 | A,2 F,2 G,2 | D,4 z D, | C,4 C,2 | B,,2 E,2 C,2 | D,6 | z2 D,2 G,,2 | G,6- | %9
 G,G, F,4- | F,F, E,D, ^C,B,, | A,,4 z D,- | D,D, ^C,3 B,, | A,,3 G,, F,,2- | F,,G,, A,,4 | %15
 D,3 D, D,,2 | G,,4 E,2 | B,,2 C,4 | A,2 F,2 G,2 | D,4 z D, | C,4 C,2 | B,,2 E,2 C,2 | D,6 | %23
 z2 D,2 G,,2 | G,6- | G,G, F,4- | F,F, E,D, ^C,B,, | A,,4 z D,- | D,D, ^C,3 B,, | A,,3 G,, F,,2- | %30
 F,,G,, A,,4 | D,3 D, D,,2 | B,,4 C2 | B,4 A,G, | z C, D,2 E,2 | z E, A,,B,, C,E, | A,3 A, G,2 | %37
 F,3 E, ^D,2 | E,A,, B,,4 | E,3 E, E,,2 | E,2 D,2 C,2 | B,,2 C,4 | =F,3 G, A,F, | G,4 C,2- | %44
 C,E, D,C, B,,A,, | B,,D, C,B,, A,,G,, | F,,3 F,, G,,C, | D,4- D,C, | B,,3 B,, A,,G,, | %49
 C,3 A,, D,C, | B,,2 ^C,3 A,, | D,6 | E,D, C,B,, A,,G,, | F,,D,, E,,F,, G,,A,, | B,,C, D,4 | %55
 G,3 G, G,,2 | B,,4 C2 | B,4 A,G, | z C, D,2 E,2 | z E, A,,B,, C,E, | A,3 A, G,2 | F,3 E, ^D,2 | %62
 E,A,, B,,4 | E,3 E, E,,2 | E,2 D,2 C,2 | B,,2 C,4 | =F,3 G, A,F, | G,4 C,2- | C,E, D,C, B,,A,, | %69
 B,,D, C,B,, A,,G,, | F,,3 F,, G,,C, | D,4- D,C, | B,,3 B,, A,,G,, | C,3 A,, D,C, | B,,2 ^C,3 A,, | %75
 D,6 | E,D, C,B,, A,,G,, | F,,D,, E,,F,, G,,A,, | B,,C, D,4 | G,3 G, !fermata!G,,2 |] %80

